Sources/FrostedUI/Resources/Icons.xcassets/plusCircle24.imageset/plus-circle-24.svg

<svg width="24" height="24" viewBox="0 0 24 24" fill="none" xmlns="http://www.w3.org/2000/svg" data-fui-icon="true">
  <path
    d="M12 1C18.0751 1 23 5.92487 23 12C23 18.0751 18.0751 23 12 23C5.92487 23 1 18.0751 1 12C1 5.92487 5.92487 1 12 1ZM12 2.5C6.75329 2.5 2.5 6.75329 2.5 12C2.5 17.2467 6.75329 21.5 12 21.5C17.2467 21.5 21.5 17.2467 21.5 12C21.5 6.75329 17.2467 2.5 12 2.5ZM12 7.00781C12.414 7.00808 12.75 7.34376 12.75 7.75781V11.251H16.2432C16.6571 11.2513 16.9932 11.587 16.9932 12.001C16.9929 12.4148 16.6569 12.7507 16.2432 12.751H12.75V16.2432C12.75 16.6572 12.414 16.9929 12 16.9932C11.586 16.9929 11.25 16.6572 11.25 16.2432V12.751H7.75781C7.34376 12.751 7.00807 12.415 7.00781 12.001C7.00781 11.5868 7.3436 11.251 7.75781 11.251H11.25V7.75781C11.25 7.34375 11.586 7.00806 12 7.00781Z"
    fill="currentColor"
  />
</svg>

<svg xmlns="http://www.w3.org/2000/svg" width="24" height="24" fill="none" data-fui-icon="true" viewBox="0 0 24 24"><path fill="currentColor" d="M12 1c6.075 0 11 4.925 11 11s-4.925 11-11 11S1 18.075 1 12 5.925 1 12 1m0 1.5a9.5 9.5 0 1 0 0 19 9.5 9.5 0 0 0 0-19m0 4.508a.75.75 0 0 1 .75.75v3.493h3.493a.75.75 0 0 1 0 1.5H12.75v3.492a.75.75 0 0 1-1.5 0v-3.492H7.758a.75.75 0 0 1 0-1.5h3.492V7.758a.75.75 0 0 1 .75-.75"/></svg>
